X:1
T:James Gibb editions
T:Qui vult venire post me -Lasso
T:#
%%score [ 1 2 ]
L:1/8
Q:1/4=108
M:4/4
K:F
V:1 treble-8 nm="Tenor" snm="T"
V:2 bass nm="Bass" snm="B"
V:1
"^Qui vult venire post me""^Orlando di Lasso\n(1532-94)" z4 c4- | c4 A4 | z2 G2 A4 | B4 c4 | %4
w: Qui|* vult|ve- ni-|re post|
 B4 z2 c2 | d4 c2 (B2- | BA c2) G2 D2 | F4 (E3 F |[M:4/4][K:treble-8] G2 (A3 G F2- | FE/D/ E2) F4 | %10
w: me, ve-|ni- re post|* * * me, ve-|ni- re *|* post * *|* * * * me,|
 z2 c2 A2 A2- | A2 B2 A4 | G2 F2 z2 G2 | E2 E4 F2 | E2 D2 C2 F2 | G2 A2 B3 A/B/ | c3 d _e2) d2 | %17
w: ab- ne- get|* se- met|i- psum, ab-|ne- get se-|met i- psum, et|tol- lat cru\- * *|* * * cem|
 c6 A2 | z2 F2 G2 A2 | (BA/B/) c4 B2 | (A3 G FE A2- | AG/F/ G2) A4 | c4 B2 A2- | A2 G2 (F3 G | %24
w: su- am,|et tol- lat|cru\- * * * cem|su\- * * * *|* * * * am,|et se- qua\-|* tur me, *|
 AB c2) z d2 c | B2 A2 z d2 c | B2 A2 z B2 A | G2 F2 z B2 A | G2 F2 z d2 c | B2 A2 z G2 F | %30
w: * * * et se-|qua- tur, et se-|qua- tur, et se-|qua- tur, et se-|qua- tur, eq se-|qua- tur, et se-|
 _E2 D2 C4 | c4 A2 (f2- | fedc B2) A2 | G4 z2 F2- | F2 D2[Q:1/4=105] (B3[Q:1/4=103] A | %35
w: qua- tur me:|di- cit Do\-|* * * * * mi-|nus, di\-|* cit Do\- *|
[Q:1/4=101] G[Q:1/4=100]F[Q:1/4=97] F4)[Q:1/4=93] E2 |[Q:1/4=92] !fermata!F8 |] %37
w: * * * mi-|nus.|
V:2
 C,8 | A,,4 z2 D,2 | E,4 F,4 | G,4 F,4 | z2 G,2 A,4 | G,2 (F,3 E, G,2) | D,2 A,2 B,4 | %7
w: Qui|vult ve-|ni- re|post me,|ve- ni-|re post * *|me, ve- ni-|
 A,2 (A,,3 B,,C,A,, |[M:4/4] B,,C,F,,G,, A,,3 B,, | G,,4) F,,4- | F,,4 z2 F,2 | D,2 D,4 F,2 | %12
w: re post * * *||* me,|* ab-|ne- get se-|
 E,2 D,2 C,4 | z2 C,2 A,,2 A,,2- | A,,2 F,2 E,2 D,2 | C,4 z2 D,2 | E,2 F,2 (G,3 F,/G,/ | %17
w: met i- psum,|ab- ne- get|* se- me i-|psum, et|tol- lat cru\- * *|
 A,2) E,2 F,4 | D,4 z2 C,2 | D,2 E,2 (F,E,/F,/ G,2) | F,2 (D,3 C, C,B,,/A,,/ | B,,4 A,,2 F,2- | %22
w: * cem su-|am, et|tol- lat cru\- * * *|cem su\- * * * *|* am, et|
 F,2 _E,2 D,4 | C,2 (B,,3 C,D,!courtesy!=E, | F,2) z A,2 G, F,2 | G, D,2 C, B,,2 A,,2 | %26
w: * se- qua-|tur me, * * *|* et se- qua-|tur, et se- qua- tur,|
 z G,2 F, _E,2 D,2 | z B,2 A, G,2 F,2 | z B,,2 A,, G,,2 F,,2 | z D,2 C, B,,2 A,,2 | G,,4 z2 G,2 | %31
w: et se- qua- tur,|et se- qua- tur,|et se- qua- tur,|et se- qua- tur|me: di-|
 E,2 F,3 E,D,C, | B,,3 C, D,E, F,2- | F,2) E,2 F,4 | B,,4 G,,2 (B,,2- | %35
w: cit Do\- * * *||* mi- nus,|di- cit Do\-|
 B,,A,, A,,G,,/F,,/ G,,3) G,, | !fermata!F,,8 |] %37
w: * * * * * * mi-|nus.|

